src/assets/images/icons/mode_light.svg

<svg width="36" height="36" viewBox="0 0 36 36" fill="none" xmlns="http://www.w3.org/2000/svg">
<mask id="path-1-inside-1_48_420" fill="white">
<path fill-rule="evenodd" clip-rule="evenodd" d="M18 36V0C8.05887 0 0 8.05887 0 18C0 27.9411 8.05887 36 18 36Z"/>
</mask>
<path fill-rule="evenodd" clip-rule="evenodd" d="M18 36V0C8.05887 0 0 8.05887 0 18C0 27.9411 8.05887 36 18 36Z" fill="#121212"/>
<path d="M18 36V40H22V36H18ZM18 0H22V-4H18V0ZM22 36V0H14V36H22ZM4 18C4 10.268 10.268 4 18 4V-4C5.84974 -4 -4 5.84974 -4 18H4ZM18 32C10.268 32 4 25.732 4 18H-4C-4 30.1503 5.84974 40 18 40V32Z" fill="#121212" mask="url(#path-1-inside-1_48_420)"/>
<circle cx="18" cy="18" r="16" stroke="#121212" stroke-width="4"/>
</svg>

<svg xmlns="http://www.w3.org/2000/svg" width="36" height="36" fill="none"><mask id="a" fill="#fff"><path fill-rule="evenodd" d="M18 36V0C8.059 0 0 8.059 0 18s8.059 18 18 18Z" clip-rule="evenodd"/></mask><path fill="#121212" fill-rule="evenodd" d="M18 36V0C8.059 0 0 8.059 0 18s8.059 18 18 18Z" clip-rule="evenodd"/><path fill="#121212" d="M18 36v4h4v-4h-4Zm0-36h4v-4h-4v4Zm4 36V0h-8v36h8ZM4 18c0-7.732 6.268-14 14-14v-8C5.85-4-4 5.85-4 18h8Zm14 14c-7.732 0-14-6.268-14-14h-8c0 12.15 9.85 22 22 22v-8Z" mask="url(#a)"/><circle cx="18" cy="18" r="16" stroke="#121212" stroke-width="4"/></svg>
